src/images/icons/pin.svg

<svg xmlns="http://www.w3.org/2000/svg"  width="41" height="64"><defs><filter id="A" filterUnits="userSpaceOnUse"><feOffset dy="1" in="SourceAlpha"/><feGaussianBlur stdDeviation="1" result="A"/><feFlood flood-opacity=".2"/><feComposite operator="in" in2="A"/><feComposite in="SourceGraphic"/></filter></defs><path d="M30 46.535c-4.75 8.816-9.5 15.964-9.5 15.964s-4.75-7.148-9.5-15.964-9.5-19.301-9.5-25.974c0-5.264 2.127-10.029 5.565-13.479S15.254 1.499 20.5 1.499s9.996 2.134 13.435 5.583S39.5 15.297 39.5 20.561c0 6.673-4.75 17.158-9.5 25.974zM31.242 9.78c-2.75-2.758-6.549-4.464-10.742-4.464S12.503 7.022 9.754 9.78a15.22 15.22 0 0 0-4.449 10.781A15.2 15.2 0 0 0 9.182 30.73c2.412 2.697 5.77 4.527 9.556 4.965l.863.075a12.41 12.41 0 0 0 .899.034 12.41 12.41 0 0 0 .899-.034c.291-.02.576-.048.863-.075a15.15 15.15 0 0 0 9.552-4.965 15.2 15.2 0 0 0 3.881-10.169c0-4.212-1.702-8.023-4.453-10.781zM20.485 27.434c-3.83 0-6.937-3.117-6.937-6.959s3.107-6.958 6.937-6.958 6.936 3.117 6.936 6.958-3.107 6.959-6.936 6.959z" fill="#ffb600" filter="url(#A)" fill-rule="evenodd"/></svg>

<svg xmlns="http://www.w3.org/2000/svg" xmlns:xlink="http://www.w3.org/1999/xlink" preserveAspectRatio="xMidYMid" width="41" height="64" viewBox="0 0 41 64">
  <defs>
    <style>
      .cls-1 {
        fill: #ffb600;
        filter: url(#drop-shadow-1);
        fill-rule: evenodd;
      }
    </style>

    <filter id="drop-shadow-1" filterUnits="userSpaceOnUse">
      <feOffset dy="1" in="SourceAlpha"/>
      <feGaussianBlur stdDeviation="1" result="dropBlur"/>
      <feFlood flood-opacity="0.2"/>
      <feComposite operator="in" in2="dropBlur" result="dropShadowComp"/>
      <feComposite in="SourceGraphic" result="shadowed"/>
    </filter>
  </defs>
  <path d="M30.000,46.535 C25.250,55.351 20.500,62.499 20.500,62.499 C20.500,62.499 15.750,55.351 11.000,46.535 C6.250,37.719 1.500,27.234 1.500,20.561 C1.500,15.297 3.627,10.532 7.065,7.082 C10.503,3.633 15.254,1.499 20.500,1.499 C25.746,1.499 30.496,3.633 33.935,7.082 C37.373,10.532 39.500,15.297 39.500,20.561 C39.500,27.234 34.750,37.719 30.000,46.535 ZM31.242,9.780 C28.492,7.022 24.693,5.316 20.500,5.316 C16.302,5.316 12.503,7.022 9.754,9.780 C7.005,12.538 5.305,16.349 5.305,20.561 C5.305,24.469 6.770,28.034 9.182,30.730 C11.594,33.427 14.952,35.257 18.738,35.695 C19.025,35.722 19.310,35.750 19.601,35.770 C19.892,35.791 20.189,35.804 20.500,35.804 C20.811,35.804 21.108,35.791 21.399,35.770 C21.690,35.750 21.975,35.722 22.262,35.695 C26.043,35.257 29.401,33.427 31.814,30.730 C34.227,28.034 35.695,24.469 35.695,20.561 C35.695,16.349 33.993,12.538 31.242,9.780 ZM20.485,27.434 C16.655,27.434 13.548,24.317 13.548,20.475 C13.548,16.634 16.655,13.517 20.485,13.517 C24.314,13.517 27.421,16.634 27.421,20.475 C27.421,24.317 24.314,27.434 20.485,27.434 Z" class="cls-1"/>
</svg>
